X:1
T:Jesus Reigns
T:Jesus Reigns
T:Joseph Lincoln Hall
T:Irvin H. Mack, 1900
T:Public Domain Courtesy of the Cyber Hymnal™
T:Public Domain Courtesy of the Cyber Hymnal™
C:Joseph Lincoln Hall
Z:Public Domain
Z:Courtesy of the Cyber Hymnal™
%%score ( 1 2 ) ( 3 4 )
L:1/8
Q:1/4=107
M:4/4
K:Ab
V:1 treble 
V:2 treble 
V:3 bass 
V:4 bass 
V:1
 [CAc]2 [CEc]2 [CAc]2 [CEc]2 | [CAc]2 [CEc]2 E4 [CE]2 | [DE]2 [DEG]2 [DEGB]2 [EGBd]2 | %3
w: 1.~Sing a- loud, ye|Christ- ian lands, Songs|* of great- est|
w: 2.~Hal- le- lu- jah!|Praise the Lord! Raise|* the might- y|
w: 3.~Praise the Lord! Ex-|ult- ant King! List!|* An- gel- ic|
 ([CAc]2 [CE]2) A4 [CE]2 | [CAc]2 [CEc]2 [CAc]2 [CEc]2 | [CEGc]2 [CEG]2 E4 | %6
w: tri- * umph, For|* your Lord has|burst the bands—|
w: an- * them; Death|* is van- quished|by His Word,|
w: voic- * es, As|* to earth the|news they bring—|
 [EGc]2 [FG=B=d]2 [EGce]2 [FGBd]2 | [EGc]6 c2 | c2 B2 E2 c2 | B2 A2 E2 B2 | A2 G2 D2 G2 | %11
w: Lives no more to|die. O|sad the night the|Lord lay dead; All|earth was steeped in|
w: Christ has made us|free. The|stone and seal, the|guard at night, Their|watch in si- lence|
w: Im- mor- tal- i-|ty! From|out the tomb, in|ma- jes- ty, He|came in ra- diant|
 [=B,F]4 [CE]2 c2 | e2 B2 c2 e2 | e2 d2 [DF]2!ff! [FAdf]2 | [EAce]2 [=DA]2 [EAc]2 [_DEGB]2 | %15
w: sor- row; But|hail! He tri- umphed,|as He said, And|rose to reign on|
w: keep- ing, Were|all in vain, for|in His might The|Sav- ior rose a-|
w: beau- ty, And|rose with heav’n- ly|hosts to be The|King e- ter- nal-|
 [CEA]6 z2 ||"^Refrain" [CE]2 [CEc]2 [CE]2 [CEc]2 | c4 [DEG]2 B4 [DEG]2 | %18
w: high.|||
w: gain.|Sing we loud the|cho- rus, Send- ing|
w: ly.|||
 [DE]2 [EGd]2 [DE]2 [EGd]2 | d4 [_FA]2 c4 [EA]2 | [EAc]2 [EAc]2 [=EBc]2 [EBc=e]2 | %21
w: |||
w: * praise be- fore|us; Je- sus reign-|* eth o’er us;|
w: |||
 [cf]4 [FAc]2 [Ac]4 [FA]2 | d2 c2 B2 A2 | c6 ([FA]2 [_EG]2) c2 | c2 B2 E2 c2 | B2 A2 E2 B2 | %26
w: |||||
w: King of kings is|* He. O sad|the night * the|* Lord lay dead;|All earth was steeped|
w: |||||
 A2 G2 D2 G2 | [=B,F]4 [CE]2 c2 | e2 B2 c2 e2 | e2 d2 [DF]2!ff! [FAdf]2 | %30
w: ||||
w: in sor- row; But|hail! He tri-|umphed, as He said,|And rose to reign|
w: ||||
 [EAce]2 [=DA]2 [EAc]2 [DEGB]2 | [CEA]6 z2 |] %32
w: ||
w: on high. * *||
w: ||
V:2
 x8 | x4 C2 x4 | x8 | x4 C2 x4 | x8 | x4 (C2 C2) | x8 | x8 | D8 | C8 | D8 | x8 | G4 _G4 | F4 x4 | %14
 x8 | x8 || x8 | [DEG]2 [DEG]2 x8 | x8 | [_FA]2 [EA]2 x8 | x8 | [FA]2 F2 x8 | d2 c2 B2 A2 | %23
 [=EG]2 x10 | D8 | C8 | D8 | x8 | G4 G4 | F4 x4 | x8 | x8 |] %32
V:3
 E,2 A,2 E,2 A,2 | E,2 A,2 (E,2 A,2) x2 | G,2 B,2 G,2 B,2 | (E,2 A,2) (E,2 A,2) x2 | %4
 E,2 A,2 E,2 A,2 | G,2 G,2 (G,2 G,2) | [C,C]2 [=B,,=B,]2 [C,C]2 [G,,G,]2 | %7
 ([C,,C,]2 G,,>E,, C,,2) z2 | [E,G,]2 [E,G,]2 [E,G,B,]2 [E,G,B,]2 | %9
 [A,,E,A,]2 [A,,E,A,]2 [A,,E,A,]2 [A,,E,A,]2 | [E,B,]2 [E,B,]2 [E,G,B,]2 [E,G,B,]2 | %11
 ([A,,=D,A,]2 [A,,D,A,]2) [A,,E,A,]2 z2 | [E,B,]2 [E,E]2 [A,E]2 [=A,C]2 | %13
 [B,D]2 [B,D]2 [D,A,]2 [D,A,D]2 | [E,A,C]2 [_F,A,_C]2 [E,A,=C]2 [E,G,]2 | %15
 ([A,,A,]2 [E,,E,]2 [C,,C,]2 [E,,E,]2) || A,2 E,2 A,2 E,2 | (G,2 B,2) (G,2 B,2) x4 | %18
 G,2 B,2 G,2 B,2 | (A,2 A,2) (A,2 A,2) x4 | C2 C2 C2 C2 | ([A,C]2 [A,C]2) ([A,C]2 [A,C]2) x4 | %22
 [D,D]2 [C,C]2 [B,,B,]2 [A,,A,]2 | ([C,C]2 [C,C]2 [C,C]2) z2 x4 | %24
 [E,G,]2 [E,G,]2 [E,G,B,]2 [E,G,B,]2 | [A,,E,A,]2 [A,,E,A,]2 [A,,E,A,]2 [A,,E,A,]2 | %26
 [E,B,]2 [E,B,]2 [E,G,B,]2 [E,G,B,]2 | ([A,,=D,A,]2 [A,,D,A,]2) [A,,D,A,]2 z2 | %28
 [E,B,]2 [E,E]2 [A,E]2 [=A,C]2 | [B,D]2 [B,D]2 [D,A,]2 [D,A,D]2 | %30
 [E,A,C]2 [_F,A,_C]2 [E,A,=C]2 [E,G,]2 | [A,,E,A,]6 z2 |] %32
V:4
 A,,8 | A,,8 x2 | E,8 | A,,8 x2 | A,,8 | C,8 | x8 | x8 | x8 | x8 | x8 | x8 | x8 | x8 | x8 | x8 || %16
 A,,8 | E,8 x4 | E,8 | A,,8 x4 | A,4 G,4 | F,8 x4 | x8 | x12 | x8 | x8 | x8 | x8 | x8 | x8 | x8 | %31
 x8 |] %32

